!!!COM: Stadler, Maximilian
!!!CDT: 1748///-1833///
!!!COA: Haydn, Joseph
!!!OTL@@IT: Gioco filarmonico
!!!OTL@EN: Philharmonic Joke
!!!OTA@@IT: o sia maniera facile per comporre un infinito numero de minuetti e trio anche senza sapere il contrapunto
!!!OTA@EN: or the Art of Composing an Infinite Number of Minutes Without the Least Knowledge of Counterpoint
!!!PDT: 1781///
!!!PPR: Artaria
!!!SML: Gesellschaft der Musikfreundes, Vienna
!!!PPR2: Luigi Marescalchi
!!!PPP2: Napoli
!!!PDT2: 1790///
**kern	**kern	**kern
*Icello	*Ivioln	*Ivioln
*>[A,A,B,B,A]	*>[A,A,B,B,A]	*>[A,A,B,B,A]
*>norep[A,B]	*>norep[A,B]	*>norep[A,B]
*>A	*>A	*>A
*k[]	*k[]	*k[]
*M3/4	*M3/4	*M3/4
*MM120	*MM120	*MM120
!!section:  I
!!measure:  A
!!diceroll: 11
=3	=3	=3
4C	4e	4cc
8E	4e	4cc
8G	.	.
4c	4e	4cc
!!section:  I
!!measure:  B
!!diceroll: 10
=142	=142	=142
8BB	4r	8.gg
8G	.	.
.	.	32ff
.	.	32gg
8D	8.ff	8.aa
8G	.	.
.	16b	16ff
8C	4cc	4ee
8G	.	.
!!section:  I
!!measure:  C
!!diceroll: 4
=158	=158	=158
4F	4c	4a
4FF	4r	12aa
.	.	12gg
.	.	12ff
4r	4r	12ee
.	.	12dd
.	.	12cc
!!section:  I
!!measure:  D
!!diceroll: 4
=13	=13	=13
4r	4.ee	4.gg
4GG	.	.
.	8dd	8ff
4C	4cc	4ee
!!section:  I
!!measure:  E
!!diceroll: 7
=154	=154	=154
4C	2G	8r
.	.	8ee
4BB	.	16ff
.	.	16ee
.	.	8dd
4AA	4e	16ee
.	.	16dd
.	.	8cc
!!section:  I
!!measure:  F
!!diceroll: 10
=129	=129	=129
4B	4g	8gg
.	.	8dd
4A	4f#	16ee
.	.	16dd
.	.	8cc
4G	4g	16dd
.	.	16cc
.	.	8b
!!section:  I
!!measure:  G
!!diceroll: 8
=21	=21	=21
4D	8a	8a
.	8cc	8ee
4E	8b	8dd
.	8a	8cc
4DD	8g	8b
.	8f#	8a
!!section:  I
!!measure:  H
!!diceroll: 4
=24	=24	=24
4G	2.g	2.g
8D	.	.
16r	.	.
16BB	.	.
4GG	.	.
*>B	*>B	*>B
!!section:  II
!!measure:  A
!!diceroll: 5
=90	=90	=90
12C	4e	4g
12E	.	.
12G	.	.
12C	4ee	4gg
12E	.	.
12G	.	.
12AA	4cc#	4ee
12E	.	.
12A	.	.
!!section:  II
!!measure:  B
!!diceroll: 7
=71	=71	=71
8F	4dd	8aa
8F	.	8a
8E	4cc#	8gg
8E	.	8a
8D	4dd	4ff
8D	.	.
!!section:  II
!!measure:  C
!!diceroll: 6
=64	=64	=64
4BB	12B	2g
.	12d	.
.	12g	.
4BB	12B	.
.	12d	.
.	12g	.
4BB	12B	16gg
.	.	16ff
.	12d	.
.	.	16ee
.	12g	.
.	.	16dd
!!section:  II
!!measure:  D
!!diceroll: 4
=132	=132	=132
4C	16cc	16cc
.	16e	16g
.	16f	16a
.	16g	16b
4r	16a	16cc
.	16b	16dd
.	16cc	16ee
.	16dd	16ff
4r	4ee	4gg
!!section:  II
!!measure:  E
!!diceroll: 9
=51	=51	=51
4F	2.c	8.a
.	.	16cc
4A	.	8.ff
.	.	16cc
4F	.	4aa
!!section:  II
!!measure:  F
!!diceroll: 10
=38	=38	=38
4E	4cc	8gg
.	.	8ee
4D	4b	8ff
.	.	8dd
4C	4cc	8ee
.	.	8cc
!!section:  II
!!measure:  G
!!diceroll: 6
=1	=1	=1
4E	4cc	8gg
.	.	8ee
4F	4a	8dd
.	.	8ff
4G	4f	8b
.	.	8dd
!!section:  II
!!measure:  H
!!diceroll: 5
=170	=170	=170
4C	2.cc	2.cc
4G	.	.
4c	.	.
*-	*-	*-
!!!END: 2004/11/01/
